//@title Seven Days @by Sting
await (async () => { (0, eval)(await (await fetch('https://raw.githubusercontent.com/MangoMindset/strudels/refs/heads/main/lib/KeyControl_v01.strudel')).text()); })();
register('stChords',p=>p
  .sound("gm_epiano1")
  .scale("C:major")
  .gain(mute(slider(0.214),'ö'))
)
setCps(1/2)

const riffA = "0 -@2 [0,2,4] -"

stack(
riffA.stChords()
  
  )